X: 2
T: The Fermoy Lasses
R: reel
M: 4/4
L: 1/8
K: Emin
|GE ~E2 BE ~E2|GFGA B2BA|GE ~E2 BE ~E2||AFDF AcBA||GE ~E2 BE ~E2|GFGA B2BA|~G3F GBdB|AFDF AcBA||G2 BG dGBG|G2 Bd efg2|G2 BG dGBG|AFDF AcBA||G2 BG dGBG|G2 Bd efg2|afge fded|AFDF AcBA|


Tune 219	Setting 12901

